X:1
T:Gesammelte Motetten
T:Siehe, das ist unser Gott
T:Johann Heinrich Rolle
T:Jesaja 25,9
T:Siehe, das ist unser Gott
T:CPDL - Creative Commons Attribution Non Commercial 3.0
T:CPDL - Creative Commons Attribution Non Commercial 3.0
T:CPDL - Creative Commons Attribution Non Commercial 3.0
T:CPDL - Creative Commons Attribution Non Commercial 3.0
T:CPDL - Creative Commons Attribution Non Commercial 3.0
T:CPDL - Creative Commons Attribution Non Commercial 3.0
T:CPDL - Creative Commons Attribution Non Commercial 3.0
T:CPDL - Creative Commons Attribution Non Commercial 3.0
T:CPDL - Creative Commons Attribution Non Commercial 3.0
T:CPDL - Creative Commons Attribution Non Commercial 3.0
C:Johann Heinrich Rolle
Z:CPDL - Creative Commons Attribution Non Commercial 3.0
%%score [ 1 2 3 4 ]
L:1/8
Q:1/4=92
M:3/4
K:C
V:1 treble nm="Sopran"
V:2 treble nm="Alt"
V:3 treble-8 nm="Tenor"
V:4 bass nm="Bass"
V:1
"^Andante" c2 B2 z2 | G2 A2 z2 | fd (c2 B)c | c2 z c BA | G>A G4- | G>A GcBA | G>A G4- | %7
w: Sie- he,|sie- he,|das ist un- * ser|Gott, auf den wir|har- * *|||
 G>A Ge dc | B>c Bc BA | G>A G | AG F | EF/G/ A2 d2 | (c4 BA/G/) | !fermata!G4 z2 |"^Solo" z6 | %15
w: * * ren, auf den wir|har- * ren, auf den wir|har- * ren,|auf den wir|har- ren, auf den wir|har- * * *|ren.||
 z6 |"^Tutti" dd d2 d2 | Bd/>e/ d4- | dd/>e/ d4- | dg^fe dc | BG (G2 A2) | G4 z2 |"^Solo" z6 | z6 | %24
w: |Und er wird uns|hel- * * *||* * * * fen, er|wird uns hel- *|fen,|||
"^Tutti" dd d2 d2 | Bd/>e/ d4- | dd/>e/ d4- | dg^fe dc | BG (G2 A2) | G4 z2 | %30
w: und er wird uns|hel- * * *||* * * * fen, er|wird uns hel- *|fen.|
"^Solo" !^!d2 !^!d2 d>d | d4 z2 |"^Tutti" !^!e2 !^!e2 e>e | e4 z2 | z6 | z6 | z6 | z6 | z6 | z6 | %40
w: Das, das ist der|Herr,|das, das ist der|Herr,|||||||
"^Tutti" !^!c2 !^!c2 c>c | c2 z c BA | G>A G4- | G>A GcBA | G>A G4- | G>A G_B AG | A>_B Ac =BA | %47
w: das, das ist der|Herr, auf den wir|har- * *|||* * ren, auf den wir|har- * ren, auf den wir|
 B>c Bd cB | (c3/2d/4e/4 f2) e2 | e2 d2 z!p! B | (B2 c2) E2 | E2 !fermata!D4 || %52
w: har- * ren, auf den, auf|den _ _ _ wir|har- ren, auf|den _ wir|har- ren.|
[M:4/4][Q:1/4=104]"^Allegro" z8 | z8 | z8 | z8 | z4 z ccc | B/>c/B GB c/>d/c Ad | BGAB c2 z c | %59
w: ||||Dass wir uns|freu- * * en und fröh- * * lich, und|fröh- lich, fröh- lich sei'n in|
 A2 B2 cGcd | G/>A/G G2 z4 | z8 | z4 z ddd | B/>c/B GB c/>d/c Ad | G6 G2 | G4 z4 | %66
w: sei- nem Heil, dass wir uns|freu- * * en,||dass wir uns|freu- * * en und fröh- * * lich, und|fröh- lich|sei'n,|
 z ddd e/>f/e ce | d/>e/d Bd (c/>d/c A)c | B2 z2 z4 | z4 z ccc | B/>c/B GB c/>d/c cG | %71
w: dass wir uns freu- * * en und|fröh- * * lich, und fröh- * * * lich|sei'n,|dass wir uns|freu- * * en und fröh- * * lich, und|
 A/>B/A dc B/>c/B ed | c/>d/c fe (d/>e/d g)f | e2 z e d2 B2 | c2 z2 G4 | A4 (A3 B/c/) | B2 z2 z4 | %77
w: fröh- * * * * * * * * *|* * * * * * * * * lich|sei'n in sei- nem|Heil, in|sei- nem _ _|Heil,|
 z4 z ccc | B/>c/B GB c/>d/c cG | A/>B/A dc B/>c/B ed | c/>d/c fe (d/>e/d g)f | e2 z e d2 B2 | %82
w: dass wir uns|freu- * * en und fröh- * * lich, und|fröh- * * * * * * * * *|* * * * * * * * * lich|sei'n in sei- nem,|
 c2 z2 c4 | c4 d4 | !fermata!c8 |] %85
w: Heil, in|sei- nem|Heil.|
V:2
 G2 G2 z2 | E2 F2 z2 | AA (G2 F)E | E2 z A GF | E>F E2 F2 | E>F EAGF | E>F E2 F2 | E>F EG GG | %8
w: ||||||||
 G2 GE EA | G>A G | AG F | EF/G/ A2 A2 | G6 | !fermata!D4 z2 | DD E2 ^F2 | GD D4 | ^FF G2 A2 | %17
w: ||||||Und er wird uns|hel- * fen,||
 B3/2c/4B/4 AG^FA | G(3B/c/B/ AG^FA | G4 G^F | GD (D2 ^F2) | G4 z2 | DD E2 ^F2 | GD D4 | %24
w: |||||und er wird uns|hel- * fen,|
 ^FF G2 A2 | B3/2c/4B/4 AG^FA | G(3B/c/B/ AG^FA | G4 G^F | GD (D2 ^F2) | G4 z2 | !^!G2 !^!G2 G>G | %31
w: |||||||
 G4 z2 | !^!^G2 !^!G2 G>G | ^G2 z c BA | ^G>A G2 ^F>A | ^G>A GcBA | ^G>A G2 ^F>A | ^G>A GB BA | %38
w: ||Herr, auf den wir|har- * * * *|||* * ren, auf den wir|
 A2 ^Gd cB | A/^G/A E2 z2 | !^!=G2 !^!G2 G>G | G2 z E GF | E>F E2 F2 | E>F EAGF | E>F E2 F2 | %45
w: har- ren, auf den wir|har- * * ren,||||||
 E>F EE FG | F2 F^F GA | G2 G^G AB | (A2 G2) G2 | G2 G2 z!p! D | (D2 E2) C2 | C2 !fermata!B,4 || %52
w: |||||||
[M:4/4] z8 | z8 | z8 | z GGG E/>F/E CE | F/>G/F DG EC/>D/ E^F | G2 z G E2 ^F2 | G2 z2 z GEG | %59
w: |||Dass wir uns freu- * * en und|fröh- * * lich, und fröh- * * * lich|sei'n in sei- nem|Heil. dass wir uns|
 A2 FD G E/>F/ GA | D2 z2 z4 | z GGG ^F/>G/F DF | G/>A/G EA ^FFGA | G2 G2 E2 ^F2 | G2 z G G2 G2 | %65
w: freu- en und fröh- lich, _ fröh- lich|sei'n,|dass wir uns freu- * * en und|fröh- * * lich, und fröh- lich, fröh- lich|sei'n in sei- nem|Heil, und fröh- lich|
 G4 z4 | z BBB c/>d/c Ac | B/>c/B GB (A/>B/A ^F)A | G2 z2 z4 | z GGG E/>F/E CE | D/>E/D GG G2 EG | %71
w: sei'n,|dass wir uns freu- * * en und|fröh- * * lich, und fröh- * * * lich|sei'n,|dass wir uns freu- * * en und|fröh- * * lich, und fröh- lich, und|
 F2 A2 G2 B/>c/B | A2 c/>d/c G2 G2 | G2 z G F2 F2 | E2 z2 E4 | F4 (^F3 G/A/) | G2 z2 z4 | %77
w: fröh- * * * * *|* * * * * lich|||||
 z GGG E/>F/E CE | D/>E/D GG G2 EG | F2 A2 G2 B/>c/B | A2 c/>d/c G2 G2 | G2 z G F2 F2 | E2 z2 ^F4 | %83
w: dass wir uns freu- * * en und|fröh- * * lich, und fröh- lich, und|fröh- * * * * *|* * * * * lich|sei'n, in sei- nem|Heil, in|
 G4 =F4 | !fermata!E8 |] %85
w: sei- nem|Heil.|
V:3
 e2 d2 z2 | c2 c2 z2 | df (e2 d)c | c4 z2 | z2 z c dB | c2 C2 z2 | z2 z c dB | c2 C2 z2 | %8
w: Sie- he,|sie- he,|das ist un- * ser|Gott,|auf den wir|har- ren,|auf den wir|har- ren,|
 z2 z c cc | c2 c | cc c | cc/c/ c2 d2 | (d4- dc/B/) | !fermata!B4 z2 | z6 | z6 | dd e2 ^f2 | %17
w: auf den wir|har- ren,|auf den wir|har- ren, auf den wir|har- * * *|ren.|||Und er wird uns|
 gd d2 z ^f | gd d2 z ^f | gedc BA | GB (B2 c2) | B4 z2 | z6 | z6 | dd e2 ^f2 | gd d2 z ^f | %26
w: hel- * fen, uns|hel- * fen, uns|hel- * * * fen, er|wird uns hel- *|fen,|||und er wir uns|hel- * fen, uns|
 gd d2 z ^f | gedc BA | GB (B2 c2) | B4 z2 | !^!B2 !^!B2 B>B | B4 z2 | !^!B2 !^!B2 B>B | %33
w: hel- * fen, uns|hel- * * * fen, er|wird uns hel- *|fen.|Das, das ist der|Herr,|das, das ist der|
 B2 z e dc | B>c B4- | B>c Bedc | B>c B4- | B>c Bd dc | c2 Bf ed | c>B c2 z2 | !^!e2 !^!e2 e>e | %41
w: Herr, * * *||||* * * auf den wir|har- ren, auf den wir|har- * ren,|das, das ist der|
 e4 z2 | z2 z c dB | c2 C2 z2 | z2 z c dB | c2 Cc cc | c2 cd dd | d2 de ee | (e2 d2) c2 | %49
w: Herr,|auf den wir|har- ren,|auf den wir|har- ren, auf den wir|har- ren, auf den wir|har- ren, auf den, auf|den _ wir|
 c2 B2 z!p! G | ^F4 F2 | G2 !fermata!G4 ||[M:4/4] z8 | z4 z ccc | B/>c/B GB c/>d/c Ad | %55
w: har- ren, auf|den wir|har- ren.||Dass wir uns|freu- * * en und fröh- * * lich, und|
 BGAB c2 z c | A2 B2 ccAd | G2 ee A/>B/A d2 | z Bcd c2 z2 | z4 z ccc | B/>c/B GB c/>d/c Ad | %61
w: fröh- lich, fröh- lich sei'n in|sei- nem Heil, dass wir uns|freu- en und fröh- * * lich,|und fröh- lich sei'n,|dass wir uns|freu- * * en und fröh- * * lich, und|
 BG/>A/ B^c d2 d2 | B2 ^c2 dde^f | g2 z2 z4 | z ddd e/>f/e ce | d/>e/d Bd (c/>d/c A)c | %66
w: fröh- * * * lich sei'n in|sei- nem Heil, in sei- nem|Heil,|dass wir uns freu- * * en und|fröh- * * lich, und fröh- * * * lich|
 B2 z G G2 G2 | G4 z4 | z4 z ccc | B/>c/B GB c/>d/c ec | d2 G2 z ccc | c2 dd d2 e2- | %72
w: sei'n, und fröh- lich|sei'n,|dass wir uns|freu- * * en, uns freu- * * en und|fröh- lich, dass wir uns|freu- en und fröh- *|
 e2 f2 (g2 d)d | c2 z c A2 G2 | G2 z2 _B4 | A4 d4 | G2 z2 z ccc | B/>c/B GB c/>d/c ec | %78
w: * * * * lich|sei'n in sei- nem|Heil, in|sei- nem|Heil. dass wir uns|freu- * * en und fröh- * * lich, und|
 d2 G2 z ccc | c2 dd d2 e2- | e2 f2 (g2 d)d | c2 z c A2 G2 | A2 z2 c4 | e4 B4 | !fermata!c8 |] %85
w: fröh- lich, dass wir uns|freu- en und fröh- *|* * * * lich|sei'n, in sei- nem|Heil, in|sei- nem|Heil.|
V:4
 C,2 G,2 z2 | C2 F,2 z2 | D,D, G,2 G,,2 | C,4 z2 | z2 z C B,G, | C2 C,2 z2 | z2 z C B,G, | %7
w: ||* * un- ser|Gott,||||
 C2 C,C B,A, | G,>A, G,A, G,F, | E,>F, E, | F,E, D, | C,D,/E,/ F,2 ^F,2 | G,6 | !fermata!G,,4 z2 | %14
w: * * auf den wir|har- * ren, * * *||||||
 z6 | z6 | z6 | z G, ^F,E, D,C, | B,,G,^F,E,D,C, | B,,2 C,2 D,D, | G,G, D,4 | G,,4 z2 | z6 | z6 | %24
w: |||Er wird * uns *|hel- * * * * *|* * fen, er|wird uns hel-|fen,|||
 z6 | z G, ^F,E, D,C, | B,,G,^F,E,D,C, | B,,2 C,2 D,D, | G,G, D,4 | G,,4 z2 | %30
w: |er wird * uns *|hel- * * * * *|* * fen, er|wird uns hel-|fen.|
 !^!G,2 !^!B,,2 D,>D, | G,4 z2 | !^!E,2 !^!^G,2 B,>B, | E,4 z2 | E,2 z E, ^D,B,, | E,4 z E, | %36
w: ||||das, das ist der|Herr, auf|
 E,2 z E, ^D,B,, | E,2 E,E, ^G,A, | E,2 E,E, ^F,^G, | A,2 A,,2 z2 | !^!C,2 !^!E,2 G,>G, | C4 z2 | %42
w: den, auf den wir|har- ren, * * *|||||
 z2 z C B,G, | C2 C,2 z2 | z2 z C B,G, | C2 C,G, F,E, | F,>G, F,A, G,^F, | G,>A, G,B, A,^G, | %48
w: ||||||
 (A,2 B,2) C2 | G,2 G,,2 z2 | z6 | !fermata!z6 ||[M:4/4] z G,G,G, E,/>F,/E, C,E, | %53
w: ||||Dass wir uns freu- * * en und|
 F,/>G,/F, D,G, E,C,/>D,/ E,^F, | G,2 z G, E,2 ^F,2 | G,G,G,G, C,2 A,A, | D,/>E,/D, G,2 C,2 z2 | %57
w: fröh- * * lich, und fröh- * * * lich|sei'n in sei- nem|Heil, dass wir uns freu- en und|fröh- * * lich sei'n,|
 z8 | z G,G,G, E,/>F,/E, C,E, | F,/>G,/F, D,G, E,C,/>D,/ E,^F, | G,2 z G, E,2 ^F,2 | %61
w: |dass wir uns freu- * * en und|fröh- * * lich, und fröh- * * * lich|sei'n in sei- nem|
 G,G,E,A, D,2 z2 | z8 | z8 | z B,B,B, C/>D/C A,C | B,/>C/B, G,B, (A,/>B,/A, ^F,)A, | G,4 z4 | z8 | %68
w: Heil, in sei- nem Heil,|||||||
 z G,G,G, E,/>F,/E, C,E, | G,4 G,,2 z2 | z G,G,G, E,/>F,/E, C,E, | F,/>G,/F, D,F, G,/>A,/G, E,G, | %72
w: dass wir uns freu- * * en und|fröh- lich,|dass wir uns freu- * * en und|fröh- * * * * * * * * *|
 A,/>B,/A, F,A, (B,/>C/B, G,)B, | C2 z C F,2 G,2 | C,2 z2 z4 | z8 | z G,G,G, E,/>F,/E, C,E, | %77
w: * * * * * * * * * lich|sei'n * * *|||dass wir uns freu- * * en und|
 G,4 G,,2 z2 | z G,G,G, E,/>F,/E, C,E, | F,/>G,/F, D,F, G,/>A,/G, E,G, | %80
w: fröh- lich,|dass wir uns freu- * * en und|fröh- * * * * * * * * *|
 A,/>B,/A, F,A, (B,/>C/B, G,)B, | C2 z C F,2 G,2 | A,2 z2 A,4 | G,4 G,4 | !fermata!C,8 |] %85
w: * * * * * * * * * lich|sei'n in sei- nem|Heil, in|sei- nem|Heil.|

